X: 1
T: Nebesko Kolo
O: Srbija
Z: John Chambers <jc@trillian.mit.edu>
M: 2/4
L: 1/8
K: A
|: "A"[AE][BG] [c2A2]- | [cA][dB] [cA][BG] | [cA][cA] "E"[BG][BG] \
|1 "A"[A2A2] [E2E2] :|2 "A"[A3A3] z ||
|: "A"[e2c2] "E"[d2B2] | "A"[c2A2] "E"[B2G2] \
|  "A"[ec][ec] "E"[dB][dB] | "A"[cA][cA] "E"[B2G2] :| "A"M[AA] z3 |]
